X:1     %Music
T:Cold Blows the Wind (Shropshire)
B:Broadwood, L, 1893, English County Songs, London, Leadenhall Press
S:Rev M.P. Holme, Tattenhall, Cheshire
Z:Lucy Broadwood
F:http://www.folkinfo.org/songs
M:6/8     %Meter
L:1/8     %
K:Ab
C |F2 =E F2 G |A2 (A/B/) c2 (A/B/) |c2 (B/A/) B2 (A/F/) | F3 z2
w:Cold blows the wind o'er my true_ love Cold_ blows the_ drops of_ rain;
 C |F F (=E/E/) F2 G |A2 (A/B/) c2 (A/B/) |c2 (B/A/) B2 (A/F/) |F3 z2 
w: I ne-ver, ne-ver had but one true_ love, And in Cam-vile_ he was_ slain. 
c |e2 c B2 A |B2 (c/d/) c2 (c/B/) |A2 G F2 =E | F3 z2 
w:I'll do as much for my true_ love As_ a-ny young girl may,
C |F2 =E F2 G |A2 (A/B/) c2 (A/B/) |c2 (B/A/) (A/G3/2) F | F3 z3 |]
w: I'll sit and weep down by his_ grave For_ twelve months_ and_ a day. 